X:1
T:O Canada (National Anthem)
T:O Canada (National Anthem)
%%score 1 2 3 4
L:1/8
Q:1/4=100
M:4/4
K:C
V:1 treble nm="C Trumpet" snm="C Tpt."
V:2 bass nm="Bass Trombone" snm="B. Tbn."
V:3 perc stafflines=1 nm="Bass Drum" snm="B. Dr."
K:none
I:percmap E B 35 normal
V:4 perc stafflines=1 nm="Snare Drum" snm="Sn. Dr."
K:none
I:percmap E B 38 normal
V:1
 G4 _B3 B | _E4 z2 F2 | G2 ^G2 ^A2 c2 | F6 z2 | G4 A3 A | ^A4 z2 c2 | d2 d2 c2 c2 | _B6 F>G | %8
 ^G3 =G F z G>_A | ^A3 ^G =G z ^G>A | c2 _B2 _A2 G2 | F6 F>G | ^G3 =G F z G>_A | ^A3 ^G =G z G>G | %14
 F2 _B2 BAGA | ^A6 z2 | G4 _B3 B | _E6 z2 | ^G4 c3 c | F6 z2 | ^A4 B3 B | c2 _A2 G2 F2 | _E4 F3 F | %23
 G6 z2 | _B4 ^d3 d | c2 _A2 G2 F2 | _B4 D4 | _E8 | z8 | z8 | z8 | z8 |] %32
V:2
 ^D,,4 _B,,,3 B,,, | C,,4 z2 _B,,,2 | ^D,,8 | _B,,,8 | ^D,,4 A,,,3 A,,, | ^A,,,6 C,,2 | F,,,8 | %7
 ^A,,,8 | _B,,,8 | _E,,8 | _E,,8 | _B,,,8 | _B,,,8 | ^D,,8 | _B,,,4 A,,,4 | _B,,,8 | _E,,8 | %17
 _E,,8 | F,,8 | _B,,,8 | _B,,,4 =B,,,3 B,,, | C,,8 | _B,,,8 | ^D,,8 | _E,,8 | _A,,,8 | ^A,,,8 | %27
 ^D,,8 | z8 | z8 | z8 | z8 |] %32
V:3
 E2 z2 E2 z2 | E2 z2 E2 z2 | E2 z2 E2 z2 | E2 z2 E2 z2 | E2 z2 E2 z2 | E2 z2 E2 z2 | E2 z2 E2 z2 | %7
 E2 z2 E2 z2 | E2 z2 E2 z2 | E2 z2 E2 z2 | E2 z2 E2 z2 | E2 z2 E2 z2 | E2 z2 E2 z2 | E2 z2 E2 z2 | %14
 E2 z2 E2 z2 | E2 z2 E2 z2 | E2 z2 E2 z2 | E2 z2 E2 z2 | E2 z2 E2 z2 | E2 z2 E2 z2 | E2 z2 E2 z2 | %21
 E2 z2 E2 z2 | E2 z2 E2 z2 | E2 z2 E2 z2 | E2 z2 E2 z2 | E2 z2 E2 z2 | E2 z2 E2 z2 | E2 z2 E2 z2 | %28
 z8 | z8 | z8 | z8 |] %32
V:4
 z E z E z E z E | z E z E z E/4E/4E/4E/4 z E/4E/4E/4E/4 | z E z E z E z E | %3
 z E z E z E/4E/4E/4E/4 z E/4E/4E/4E/4 | z E z E z E z E | z E z E z E/4E/4E/4E/4 z E/4E/4E/4E/4 | %6
 z E z E z E z E | z E z E z E/4E/4E/4E/4 z E/4E/4E/4E/4 | z E z E z E z E | %9
 z E z E z E/4E/4E/4E/4 z E/4E/4E/4E/4 | z E z E z E z E | z E z E z E/4E/4E/4E/4 z E/4E/4E/4E/4 | %12
 z E z E z E z E | z E z E z E/4E/4E/4E/4 z E/4E/4E/4E/4 | z E z E z E z E | %15
 z E z E z E/4E/4E/4E/4 z E/4E/4E/4E/4 | z E z E z E z E | z E z E z E/4E/4E/4E/4 z E/4E/4E/4E/4 | %18
 z E z E z E z E | z E z E z E/4E/4E/4E/4 z E/4E/4E/4E/4 | z E z E z E z E | %21
 z E z E z E/4E/4E/4E/4 z E/4E/4E/4E/4 | z E z E z E z E | z E z E z E/4E/4E/4E/4 z E/4E/4E/4E/4 | %24
 z E z E z E z E | z E z E z E/4E/4E/4E/4 z E/4E/4E/4E/4 | z E z E z E z E | %27
 z E z E z E/4E/4E/4E/4 z E/4E/4E/4E/4 | z8 | z8 | z8 | z8 |] %32

